X: 38074
T: Spirits Of Wine, The
R: reel
M: 4/4
K: Gmajor
dc|:BAGB AFDc|BDGB d2df|gdBd g2dB|cBAG FAdc|
BAGB AFDc|BDGB d2df|gdBd g2dB|G2GD G3d/e/:|
|:dBB2 B2gf|ecc2 c2ge|dBB2 B2dB|cBAG ADFA|
dBB2 B2gf|ecc2 efge|dgBd cAFA|GgdB G3g/f/:|

